X:75
%
T:The Kesh Jig
C:Traditional
L:1/8
M:6/8
Q:1/4=80
K:G treble
%
"G" G3 GAB | "D" ABA ABd | "C" edd gdd | edB "D" dBA |
"G" G3 GAB | "D" ABA ABd | "C" edd gdd | "D" AGF "G" G3 ||
"G" BAB dBd | "C" ege dBA | "G" BAB dBG | "D" ABA AGA |
"G" BAB dBd | "C" ege "G" dBd | "C" gfg "D" aga | "G" bgg g3 |]


